printer-3d-nozzle-alert-outline.svg

<svg fill="currentColor" viewBox="0 0 24 24"><path d="M7 2h10v5h2v6h-2.5L13 17h-2l-3.5-4H5V7h2zm3 20H2v-2h8c.6 0 1-.5 1-1v-1h2v1c0 1.7-1.3 3-3 3M7 9v2h1.5l3.5 4 3.5-4H17V9h-2V4H9v5zm14 4V7h2v6zm0 4v-2h2v2z"/></svg>

<svg  viewBox="0 0 24 24" fill="currentColor"><path  d="M7 2H17V7H19V13H16.5L13 17H11L7.5 13H5V7H7V2M10 22H2V20H10C10.6 20 11 19.5 11 19V18H13V19C13 20.7 11.7 22 10 22M7 9V11H8.5L12 15L15.5 11H17V9H15V4H9V9H7M21 13V7H23V13H21M21 17V15H23V17H21Z"/></svg>
